X:3383
L:1/8
M:4/4
K:G
 D | G3 A B2 g2 | dBAG A2 GE | G3 A B3 d | e3 e B2 gG | GFGA Bcde | dBAG A2 GE | DEGA BABd | 
 egde B2 g || a | bage d>ege | dBAG A2 GE | gage degd | eBdA B2 ga | bage deba | gedB A3 g | 
 dBAG DEGA | B3 A B2 g ||

